X:1
T:Jesu, Magister Bone, 76.76 D
T:Jesu, Magister Bone, 76.76 D
T:John Bacchus Dykes, 1875
T:Public Domain Courtesy of the Cyber Hymnal™
C:John Bacchus Dykes, 1875
Z:Public Domain
Z:Courtesy of the Cyber Hymnal™
%%score ( 1 2 ) ( 3 4 )
L:1/8
Q:1/4=115
M:4/4
K:F
V:1 treble 
V:2 treble 
V:3 bass 
V:4 bass 
V:1
 [CA]2 | [DA]2 [DG]2 D2 E2 | F4 [CF]2 [CG]2 | [CA]2 F2 [Dc]2 [DB]2 | [EG]6 [CA]2 | %5
 [CA]2 [DG]2 D2 [DE]2 | [DF]2 [EG]2 [FA]2 [F=B]2 | [Gc]2 [Ge]2 [Ff]2 [F=B]2 | [Ec]6 [Ec]2 | %9
 [Dc]2 [^FA]2 [FA]2 [Dd]2 | c4 [GB]2 [DB]2 | [CB]2 [EG]2 [EG]2 [Cc]2 | [CA]6 [CA]2 | %13
 [DA]2 [DG]2 [DG]2 (AB) | [Ec]2 [Dd]2 [DB]2 [DG]2 | [CF]2 [CA]2 [EB]2 [CE]2 | [B,F]6 |] %17
V:2
 x2 | x4 D2 (CB,) | A,2 B,2 x4 | x2 F2 x4 | x8 | x8 | x8 | x8 | x8 | x8 | E2 ^F2 x4 | x8 | x8 | %13
 x6 E2 | x8 | x8 | x6 |] %17
V:3
 [F,A,]2 | [B,,B,]2 [B,,B,]2 [C,B,]2 (A,G,) | F,2 G,2 [F,A,]2 [E,B,]2 | %3
 [F,A,]2 [D,A,]2 [B,,A,]2 [B,,G,]2 | [C,C]6 [F,A,]2 | [B,,B,]2 [B,,B,]2 [G,B,]2 [G,B,]2 | %6
 [D,A,]4 [D,D]2 [D,G,]2 | (G,A,) [C,B,]2 [F,A,]2 [G,D]2 | [C,C]6 (A,G,) | %9
 [D,^F,]2 [D,A,]2 [D,C]2 [F,A,]2 | [G,A,]4 [G,B,]2 (A,F,) | [C,E,]2 [C,G,]2 [C,B,]2 [E,G,]2 | %12
 [F,A,]6 [A,,F,]2 | [B,,B,]2 [B,,B,]2 [B,D]2 [B,C]2 | ([A,C][G,B,]) [^F,A,]2 [G,B,]2 [B,,B,]2 | %15
 [C,A,]2 [C,F,]2 [C,G,]2 [C,B,]2 | [F,A,]6 |] %17
V:4
 x2 | x6 C,2 | F,4 x4 | x8 | x8 | x8 | x8 | E,2 x6 | x6 C,2 | x8 | x6 B,,2 | x8 | x8 | x8 | x8 | %15
 x8 | x6 |] %17

